!!!OTL: Die dienende Schwester.
!!!OTL-incipit: Es wohnt ein Pfalzgraf ueber dem Rhein,
!!!ARE: Europa, Mitteleuropa, Deutschland (BRD), Rheinpfalz
!!!YOR: 4, S. 112
!!    1909 gedruckt in Kaiserslautern
!!!SCT: Q0075g
!!!TXL: @@DE
!!!YEM: Copyright 1995, estate of Helmut Schaffrath.
**kern	**text
*ICvox	*
*M2/4	*
*k[b-]	*
*F:	*
!LO:TX:a:t=669 Rheinpfalʒ	!
{8cc	Es
=1	=1
8a	wohm
8cc	ein
8cc	Pfalʒgraf
8cc	.
=2	=2
16b-	über
16b-	.
8dd	dem
8dd}	Rhein,
{8dd	der
=3	=3
8g	hat
8b-	drei
8b-	ſchö-
8b-	-ne
=4	=4
8a	Töchterlein,
8cc	.
8cc}	.
{8cc	der
=5	=5
4aa	hat
8ggL	drei
8ffJ	.
=6	=6
8eeL	schö-
8ggJ	.
8ffL	-ne
8ddJ	.
=7	=7
4cc	Töch-
4ee	-ter-
=8	=8
4ff	-lein.
8r}	.
==	==
!!!AGN: Ballade, Adelige als Dienstmagd, Tod; Kinder - Spiel, Tanz
!!!ONB: ESAC (Essen Associative Code) Database: BALLADE
!!!AMT: simple duple
!!!AIN: vox
!!!EED: Helmut Schaffrath
!!!EEV: 1.0
!!!source: Deutsche Volkslieder mit ihren Melodien. Herausgegeben vom Deutschen Volksliedarchiv. Vierter Band. Berlin 1959.
!!!page: 112
!!!ENC: Anna Maria Matuszewska
!!!EEV: 2025/02/27
*-	*-
